svgs/regular/grid-horizontal.svg

<svg xmlns="http://www.w3.org/2000/svg" viewBox="0 0 448 512"><!--! Font Awesome Pro 6.4.2 by @fontawesome - https://fontawesome.com License - https://fontawesome.com/license (Commercial License) Copyright 2023 Fonticons, Inc. --><path d="M40 168v48H88V168H40zM0 168c0-22.1 17.9-40 40-40H88c22.1 0 40 17.9 40 40v48c0 22.1-17.9 40-40 40H40c-22.1 0-40-17.9-40-40V168zM40 328v48H88V328H40zM0 328c0-22.1 17.9-40 40-40H88c22.1 0 40 17.9 40 40v48c0 22.1-17.9 40-40 40H40c-22.1 0-40-17.9-40-40V328zM248 168H200v48h48V168zm-48-40h48c22.1 0 40 17.9 40 40v48c0 22.1-17.9 40-40 40H200c-22.1 0-40-17.9-40-40V168c0-22.1 17.9-40 40-40zm0 200v48h48V328H200zm-40 0c0-22.1 17.9-40 40-40h48c22.1 0 40 17.9 40 40v48c0 22.1-17.9 40-40 40H200c-22.1 0-40-17.9-40-40V328zM408 168H360v48h48V168zm-48-40h48c22.1 0 40 17.9 40 40v48c0 22.1-17.9 40-40 40H360c-22.1 0-40-17.9-40-40V168c0-22.1 17.9-40 40-40zm0 200v48h48V328H360zm-40 0c0-22.1 17.9-40 40-40h48c22.1 0 40 17.9 40 40v48c0 22.1-17.9 40-40 40H360c-22.1 0-40-17.9-40-40V328z"/></svg>

<svg xmlns="http://www.w3.org/2000/svg" viewBox="0 0 448 512"><!--! Font Awesome Pro 6.1.1 by @fontawesome - https://fontawesome.com License - https://fontawesome.com/license (Commercial License) Copyright 2022 Fonticons, Inc. --><path d="M0 168C0 145.9 17.91 128 40 128H88C110.1 128 128 145.9 128 168V216C128 238.1 110.1 256 88 256H40C17.91 256 0 238.1 0 216V168zM40 216H88V168H40V216zM0 328C0 305.9 17.91 288 40 288H88C110.1 288 128 305.9 128 328V376C128 398.1 110.1 416 88 416H40C17.91 416 0 398.1 0 376V328zM40 376H88V328H40V376zM248 128C270.1 128 288 145.9 288 168V216C288 238.1 270.1 256 248 256H200C177.9 256 160 238.1 160 216V168C160 145.9 177.9 128 200 128H248zM248 168H200V216H248V168zM160 328C160 305.9 177.9 288 200 288H248C270.1 288 288 305.9 288 328V376C288 398.1 270.1 416 248 416H200C177.9 416 160 398.1 160 376V328zM200 376H248V328H200V376zM408 128C430.1 128 448 145.9 448 168V216C448 238.1 430.1 256 408 256H360C337.9 256 320 238.1 320 216V168C320 145.9 337.9 128 360 128H408zM408 168H360V216H408V168zM320 328C320 305.9 337.9 288 360 288H408C430.1 288 448 305.9 448 328V376C448 398.1 430.1 416 408 416H360C337.9 416 320 398.1 320 376V328zM360 376H408V328H360V376z"/></svg>
